X:1
T:James Gibb editions
T:Escureçe las montañas - Machado
T:#
%%score [ 1 2 3 4 ]
L:1/8
Q:1/4=150
M:3/2
K:C
V:1 treble nm="Soprano" snm="S"
V:2 treble nm="Alto" snm="A"
V:3 treble-8 nm="Tenor" snm="T"
V:4 bass nm="Bass" snm="B"
V:1
"^Escureçe las montañas""^Manuel Machado\n(c.1590-1646)" z4 E4 ^F4 | ^G4 A8 | A4 ^G8 | A12 | %4
w: Es- cu-|re- çe|las mon-|ta-|
 ^G8 G4 | A4 B8 | c8 c4 | z4 B4 B4 | A12 | B4 B6 c2 | d4 e4 c4- | c4 c8 | c12- | c8 c4 | z4 B4 B4 | %15
w: ñas de|Gua- dar-|ra- ma|el o-|tu-|bre y con-|fu- sa- men\-|* te~~al|cie\-|* lo|quie- re~~i-|
 B4 ^c4 c4- | c4 d4 d4- | d4 d8 | z4 e4 e4 | e4 f4 f4- | f4 e4 e4- | e4 d4 d4- | d4 c4 (e4- | %23
w: gua- lar con|* sus cum\-|* bres,|quie- re~~i-|gua- lar con|* sus cum\-|* bres, con|* sus cum\-|
 e4 d8) | e12 || z16 | z2 B2 B2 B2 c4 c4 | B8 A4 E4 |[M:4/2] E2 e2 e2 e2 d4 d4 | e16 | %30
w: |bres.||Y~~e- sta mu- dan- za,|Fi- lis, Fi-|lis, y~~e- sta mu- dan- za,|Fi-|
 E4 G8 (^F2 E2) | ^F8 G8 | z4 G4 G6 A2 | G4 G4 A4 G4- | G2 G2 F4 E8 | F8 z8 | z8 z2 A2 A2 B2 | %37
w: lis, en el *|tiem- po|pre- vie- ne|las que~~a- mor ha\-|* çe~~en mi pe-|cho,|pues na- çe~~a-|
 c2 c2 c2 c2 B4 B4 | A4 A4 z2 E2 E2 F2 | G2 G2 G2 G2 F4 F4 | E2 E2 E2 ^F2 ^G4 A4 | %41
w: le- gre la~~es- per- an- za|mí- a, pues na- çe~~a-|le- gre la~~es- per- an- za|mí- a, la~~es- per- an- za|
 (A4 ^G4) A2 e2 e2 e2 | f6 e2 d4 c4 | B4 A4 ^G8 | A4 z4 z8 | z8 z2 B2 B2 B2 | c6 B2 A4 G4 | %47
w: mí\- * a, pues na- çe~~a-|le- gre la~~es- per-|an- za mi-|a|en la~~o- ca-|sión que to- do|
 F2 E2 (G8 ^F4) | G8 z2 E2 E2 E2 | e6[Q:1/4=149] d2[Q:1/4=146] c4[Q:1/4=143] B4 | %50
w: se mar- chi\- *|ta, en la~~o- ca-|sión que to- do|
[Q:1/4=140] A4[Q:1/4=137] G4[Q:1/4=132] c8 |[Q:1/4=130] B16 |] %52
w: se mar- chi-|ta.|
V:2
 z4 ^G4 A4 | B4 c8 | B4 B8 | c12 | B8 E4 | E4 G8 | G8 G4 | z4 G4 G4 | (G4 ^F8) | G12 | z4 E6 F2 | %11
w: Es- cu-|re- çe|las mon-|ta-|ñas de|Gua- dar-|ra- ma|el o-|tu\- *|bre|y con-|
 G4 A4 A4- | A4 G8 | A8 A4 | z12 | z12 | z4 A4 A4 | A4 B4 B4- | B4 c4 c4- | c4 c8 | z4 c4 c4 | %21
w: fu- sa- men\-|* te~~al|cie- lo|||quie- re~~i-|gua- lar con|* sus cum\-|* bres,|quie- re~~i-|
 c4 B4 B4- | B4 A4 (c4- | c4 B4 A4) | B12 || z8 z2 A2 A2 A2 | ^G4 G4 A4 A4 | z2 B2 B2 B2 c4 c4 | %28
w: gua- lar con|* sus cum\-||bres.|Y~~e- sta mu-|dan- za, Fi- lis,|y~~e- sta mu- dan za,|
[M:4/2] B4 B4 z2 A2 A2 A2 | ^G4 G4 A4 A4 | z4 B8 (A2 G2) | A8 B8 | z4 B4 c6 c2 | %33
w: Fi- lis, y~~e- sta mu-|dan- za, Fi- lis,|en el *|tiem- po|pre- vie- ne|
 d4 c4 c2 c2 c2 _B2 | A16 | A2 A2 A2 B2 c2 c2 c2 c2 | B4 B4 A8 | G2 E2 E2 F2 G2 G2 G2 G2 | %38
w: las que~~a- mor ha- çe~~en mi|pe-|cho, pues na- çe~~a- le- gre la~~es- per-|an- za mí-|a, pues na- çe~~a- le- gre la~~es- per-|
 F4 F4 E8 | E2 B2 B2 c2 d2 d2 d2 d2 | c4 c4 B8- | B8 ^c8 | z16 | z8 z2 B2 B2 B2 | c6 B2 A4 G4 | %45
w: an- za mí-|a, pues na- çe~~a- le- gre la~~es- per-|an- za mí\-|* a,||en la~~o- ca-|sión que to- do|
 F4 E4 F8 | G4 e8 e4 | d8- d8 | B2 B2 B2 B2 e6 d2 | c4 B4 A4 G4 | c2 c2 B2 B2 A8 | ^G16 |] %52
w: se mar- chi-|ta, se mar-|chi\- *|ta, en la~~o- ca- sión que|to- do se mar-|chi- ta, se mar- chi-|ta.|
V:3
 z4 e4 e4 | e4 e8 | f4 e8 | e12 | e8 B4 | c4 d8 | e8 e4 | z4 d4 d4 | d12 | d12 | z4 c6 d2 | %11
w: Es- cu-|re- çe|las mon-|ta-|ñas de|Gua- dar-|ra- ma|el o-|tu-|bre|y con-|
 e4 f4 f4- | f4 e8 | f8 f4 | z12 | z4 e4 e4 | e4 ^f4 f4- | f4 g4 g4- | g4 g8 | z4 a4 a4 | %20
w: fu- sa- men\-|* te~~al|cie- lo||quie- re~~i-|gua- lar con|* sus cum\-|* bres,|quie- re~~i-|
 a4 g4 g4- | g12 | e12 | a12 | ^g12 || z2 e2 e2 e2 f4 f4 | e8 A4 e4 | e8 e2 A2 A2 A2 | %28
w: gua- lar con||sus|cum-|bres.|Y~~e- sta mu- dan- za,|Fi- lis, mu-|dan- za, y~~e- sta mu-|
[M:4/2][K:treble-8] ^G4 G4 A8 | B2 B2 B2 B2 c4 c4 | B6 c2 d4 d4 | d8 d8 | z4 d4 e6 e2 | %33
w: dan- za, Fi-|lis, y~~e- sta mu- dan- za,|Fi- lis, en el|tiem- po|pre- vie- ne|
 f4 e4 f4 e4- | e2 e2 d4 (d4 ^c4) | d8 z8 | z2 d2 d2 e2 f2 f2 f2 f2 | e4 e4 d8 | %38
w: las que~~a- mor ha\-|* çe~~en mi pe\- *|cho,|pues na- çe~~a- le- gre la~~es- per-|an- za mí-|
 d2 A2 A2 B2 c2 c2 c2 c2 | B4 G4 A4 A4 | z4 c2 d2 e4 f4 | e4 e4 z2 A2 A2 A2 | d6 c2 B4 A4 | %43
w: a, pues na- çe~~a- le- gre la~~es- per-|an- za mí- a,|la~~es- per- an- za|mí- a, en la~~o- ca-|sión que to- do|
 ^G4 A4 e8 | e4 z4 z8 | z8 z2 d2 d2 d2 | e6 d2 c4 B4 | A4 G4 A8 | G2 G2 G2 G2 c6 B2 | %49
w: se mar- chi-|ta,|en la~~o- ca-|sión que to- do|se mar- chi-|ta, en la~~o- ca- sión que|
 A4 B2 B2 e2 e2 e2 e2 | e16 | e16 |] %52
w: to- do, que to- do se mar-|chi-|ta.|
V:4
 z4 E,4 E,4 | E,4 C,8 | D,4 E,8 | A,,12 | E,8 E,4 | A,4 G,8 | C,8 C,4 | z4 G,,4 G,,4 | D,12 | %9
w: Es- cu-|re- çe|las mon-|ta-|ñas de|Gua- dar-|ra- ma|el o-|tu-|
 G,,4 G,6 A,2 | B,4 C4 C4- | C4 C8 | C8 C4 | z4 F,4 F,4 | ^F,4 G,4 G,4- | G,4 A,4 A,4- | A,4 D,8 | %17
w: bre y con-|fu- sa- men\-|* te~~al|cie- lo|quie- re~~i-|gua- lar con|* sus cum\-|* bres,|
 z4 G,4 G,4 | G,4 C4 C4- | C4 F,4 F,4- | F,4 C,4 C,4- | C,4 G,4 G,4 | ^G,4 A,8 | F,12 | E,12 || %25
w: quie- re~~i-|gua- lar con|* sus cum-|* bres, i-|* gua- lar|con sus|cum-|bres.|
 z16 | z8 z2 A,2 A,2 A,2 | ^G,4 G,4 A,4 A,4 |[M:4/2] z2 E,2 E,2 E,2 F,4 F,4 | E,8 A,,4 A,4- | %30
w: |Y~~e- sta mu-|dan- za, Fi- lis,|y~~e- sta mu- dan- za,|Fi- lis, en|
 A,4 G,4 D,8- | D,8 G,,8 | z4 G,4 C6 A,2 | B,4 C4 F,4 C4- | C2 C2 D4 A,8 | D,8 z2 E,2 E,2 F,2 | %36
w: * el tiem\-|* po|pre- vie- ne|las que~~a- mor ha\-|* çe~~en mi pe-|cho, pues na- çe~~a-|
 G,2 G,2 G,2 G,2 F,4 F,4 | C,8 G,,2 A,,2 B,,2 C,2 | D,2 D,2 D,2 D,2 C,2 C,2 C,2 D,2 | %39
w: le- gre la~~es- per- an- za|mí- a, pues na- çe~~a-|le- gre la~~es- per- an- za mí- a,|
 E,6 E,2 D,2 E,2 F,2 G,2 | A,2 A,2 A,2 A,2 E,4 D,4 | E,8 A,,8 | z16 | z8 z2 E,2 E,2 E,2 | %44
w: la~~es- per- an- za mí- a,|la~es- per- an- za mí\- *|* a||en la~~o- ca-|
 A,6 G,2 F,4 E,4 | D,4 C,4 D,8 | C,12 C,2 C,2 | D,8 D,2 D,2 D,2 D,2 | E,6 D,2 C,4 C,2 G,,2 | %49
w: sión que to- do|se mar- chi-|ta, se mar-|chi- ta, en la~~o- ca-|sión que to- do, que|
 A,,2 A,,2 ^G,,2 G,,2 A,,4 E,2 E,2 | A,2 A,2 E,2 E,2 A,,8 | E,16 |] %52
w: to- do se mar- chi- ta, que|to- do se mar- chi-|ta.|

